X: 128007
T: JIG
%R: jig
B: James Kerr "Merry Melodies" v.1 p.28 s.0 #7
Z: 2016 John Chambers <jc:trillian.mit.edu>
M: 6/8
L: 1/8
K: A
ue |\
ve2ve cde | vf2vf uf2uf | gfg efg | a2a a2a |\
e2e cde | f2g agf | efe dcB | A2z a2 H|]
|: uE |\
vA2vA AGA | B2B e2e | c2c A2A | GAB EFG |\
A2A AGA | B2B e2e | cfe dcB | A2z "_D.C."a2 :|

%%sep 1 1 500
%%sep 1 1 500

